public/assets/icons/biomarker-tests.svg

<svg viewBox="0 0 60 60" xmlns="http://www.w3.org/2000/svg" xmlns:xlink="http://www.w3.org/1999/xlink"><linearGradient id="a" gradientUnits="userSpaceOnUse" x1="30" x2="30" y1="55" y2="5"><stop offset="0" stop-color="#facfdc"/><stop offset="1" stop-color="#d2e2f7"/></linearGradient><g transform="matrix(1.2 0 0 1.2 -6 -6)"><circle cx="30" cy="30" fill="url(#a)" r="25"/><path d="m17.22 35.79a.71.71 0 0 1 -.71.7h-.75v1.82h.75a.71.71 0 0 1 .71.71.7.7 0 0 1 -.71.7h-.75v1.82h.75a.71.71 0 0 1 .71.71.7.7 0 0 1 -.71.7h-.68a2.45 2.45 0 0 0 4.83-.57v-9.12h-4.9v1.82h.75a.71.71 0 0 1 .71.71z" fill="#ffecf1"/><path d="m22.07 22.81a2 2 0 0 1 0 3.94v15.45h13.07v-3.66a.71.71 0 0 1 .71-.71h3.66v-20h-17.44zm3.76-1.81h10.24a.71.71 0 0 1 0 1.42h-10.24a.71.71 0 0 1 0-1.42zm0 3.68h10.24a.71.71 0 0 1 .71.71.7.7 0 0 1 -.71.7h-10.24a.7.7 0 0 1 -.71-.7.71.71 0 0 1 .71-.69zm0 3.68h10.24a.7.7 0 0 1 .71.7.71.71 0 0 1 -.71.71h-10.24a.71.71 0 0 1 -.71-.71.7.7 0 0 1 .71-.68zm0 3.67h10.24a.71.71 0 0 1 0 1.42h-10.24a.71.71 0 0 1 0-1.42zm0 3.68h5.17a.71.71 0 0 1 .7.71.7.7 0 0 1 -.7.7h-5.17a.7.7 0 0 1 -.71-.7.71.71 0 0 1 .71-.69z" fill="#fff"/><path d="m17.22 29.32a.71.71 0 0 1 -.71.71h-.75v1.82h4.9v-5.05h-4.9v1.82h.75a.7.7 0 0 1 .71.7z" fill="#fff"/><path d="m21.62 24.07h-6.83a.71.71 0 0 0 0 1.42h6.83a.71.71 0 1 0 0-1.42z" fill="#fff"/><path d="m38.66 39.23.09-.08h-2.29v2.29zm-2.11 0h2l-2 2z" fill="#fff"/><path d="m36.55 39.25v1.95l1.96-1.95z" fill="#fff"/><g fill="#0d1c3a"><path d="m41.59 13.83h-8.75a2 2 0 0 0 -3.78 0h-9a2 2 0 0 0 -2 2v6.91h-3.27a2 2 0 0 0 -.44 4v15.64a3.86 3.86 0 0 0 4.93 3.71 2 2 0 0 0 .77.15h21.54a2 2 0 0 0 2-2v-28.39a2 2 0 0 0 -2-2.02zm-27.5 11a.71.71 0 0 1 .7-.71h6.83a.71.71 0 1 1 0 1.42h-6.83a.71.71 0 0 1 -.7-.76zm8-2v-4.96h17.42v20h-3.66a.71.71 0 0 0 -.71.71v3.62h-13.07v-15.45a2 2 0 0 0 0-3.94zm16.66 16.32-2.29 2.29v-2.29zm-22.24 3.85a.7.7 0 0 0 .71-.7.71.71 0 0 0 -.71-.71h-.75v-1.87h.75a.7.7 0 0 0 .71-.7.71.71 0 0 0 -.71-.71h-.75v-1.82h.75a.71.71 0 1 0 0-1.41h-.75v-1.82h4.9v9.12a2.45 2.45 0 0 1 -4.83.57zm.71-13.63a.7.7 0 0 0 -.71-.7h-.75v-1.87h4.9v5.05h-4.9v-1.85h.75a.71.71 0 0 0 .71-.68z"/><path d="m25.83 22.44h10.24a.71.71 0 0 0 0-1.42h-10.24a.71.71 0 0 0 0 1.42z"/><path d="m25.83 26.11h10.24a.7.7 0 0 0 .71-.7.71.71 0 0 0 -.71-.71h-10.24a.71.71 0 0 0 -.71.71.7.7 0 0 0 .71.7z"/><path d="m25.83 29.79h10.24a.71.71 0 0 0 .71-.71.7.7 0 0 0 -.71-.7h-10.24a.7.7 0 0 0 -.71.7.71.71 0 0 0 .71.71z"/><path d="m25.83 33.47h10.24a.71.71 0 0 0 0-1.42h-10.24a.71.71 0 0 0 0 1.42z"/><path d="m25.83 37.14h5.17a.7.7 0 0 0 .7-.7.71.71 0 0 0 -.7-.71h-5.17a.71.71 0 0 0 -.71.71.7.7 0 0 0 .71.7z"/></g></g></svg>

<?xml version="1.0" encoding="utf-8"?>
<svg viewBox="0 0 60 60" xmlns="http://www.w3.org/2000/svg">
  <defs>
    <style>.cls-1{fill:url(#New_Gradient_Swatch_2);}.cls-2{fill:#ffecf1;}.cls-3{fill:#fff;}.cls-4{fill:#0d1c3a;}</style>
    <linearGradient id="New_Gradient_Swatch_2" x1="30" y1="55" x2="30" y2="5" gradientUnits="userSpaceOnUse">
      <stop offset="0" stop-color="#facfdc"/>
      <stop offset="1" stop-color="#d2e2f7"/>
    </linearGradient>
  </defs>
  <title>vv copy 49</title>
  <g id="Layer_6" data-name="Layer 6" transform="matrix(1.2, 0, 0, 1.2, -6, -6)">
    <circle class="cls-1" cx="30" cy="30" r="25"/>
    <path class="cls-2" d="M17.22,35.79a.71.71,0,0,1-.71.7h-.75v1.82h.75a.71.71,0,0,1,.71.71.7.7,0,0,1-.71.7h-.75v1.82h.75a.71.71,0,0,1,.71.71.7.7,0,0,1-.71.7h-.68a2.45,2.45,0,0,0,4.83-.57V33.26h-4.9v1.82h.75A.71.71,0,0,1,17.22,35.79Z"/>
    <path class="cls-3" d="M22.07,22.81a2,2,0,0,1,0,3.94V42.2H35.14V38.54a.71.71,0,0,1,.71-.71h3.66v-20H22.07ZM25.83,21H36.07a.71.71,0,0,1,0,1.42H25.83a.71.71,0,0,1,0-1.42Zm0,3.68H36.07a.71.71,0,0,1,.71.71.7.7,0,0,1-.71.7H25.83a.7.7,0,0,1-.71-.7A.71.71,0,0,1,25.83,24.7Zm0,3.68H36.07a.7.7,0,0,1,.71.7.71.71,0,0,1-.71.71H25.83a.71.71,0,0,1-.71-.71A.7.7,0,0,1,25.83,28.38Zm0,3.67H36.07a.71.71,0,0,1,0,1.42H25.83a.71.71,0,0,1,0-1.42Zm0,3.68H31a.71.71,0,0,1,.7.71.7.7,0,0,1-.7.7H25.83a.7.7,0,0,1-.71-.7A.71.71,0,0,1,25.83,35.73Z"/>
    <path class="cls-3" d="M17.22,29.32a.71.71,0,0,1-.71.71h-.75v1.82h4.9V26.8h-4.9v1.82h.75A.7.7,0,0,1,17.22,29.32Z"/>
    <path class="cls-3" d="M21.62,24.07H14.79a.71.71,0,0,0,0,1.42h6.83a.71.71,0,1,0,0-1.42Z"/>
    <path class="cls-3" d="M38.66,39.23l.09-.08H36.46v2.29Zm-2.11,0h2l-2,2Z"/>
    <polygon class="cls-3" points="36.55 39.25 36.55 41.2 38.51 39.25 36.55 39.25"/>
    <path class="cls-4" d="M41.59,13.83H32.84a2,2,0,0,0-3.78,0h-9a2,2,0,0,0-2,2v6.91H14.79a2,2,0,0,0-.44,4V42.38a3.86,3.86,0,0,0,4.93,3.71,2,2,0,0,0,.77.15H41.59a2,2,0,0,0,2-2V15.85A2,2,0,0,0,41.59,13.83Zm-27.5,11a.71.71,0,0,1,.7-.71h6.83a.71.71,0,1,1,0,1.42H14.79A.71.71,0,0,1,14.09,24.78Zm8-2V17.87H39.51v20H35.85a.71.71,0,0,0-.71.71V42.2H22.07V26.75a2,2,0,0,0,0-3.94ZM38.75,39.15l-2.29,2.29V39.15ZM16.51,43a.7.7,0,0,0,.71-.7.71.71,0,0,0-.71-.71h-.75V39.72h.75a.7.7,0,0,0,.71-.7.71.71,0,0,0-.71-.71h-.75V36.49h.75a.71.71,0,1,0,0-1.41h-.75V33.26h4.9v9.12a2.45,2.45,0,0,1-4.83.57Zm.71-13.63a.7.7,0,0,0-.71-.7h-.75V26.8h4.9v5.05h-4.9V30h.75A.71.71,0,0,0,17.22,29.32Z"/>
    <path class="cls-4" d="M25.83,22.44H36.07a.71.71,0,0,0,0-1.42H25.83a.71.71,0,0,0,0,1.42Z"/>
    <path class="cls-4" d="M25.83,26.11H36.07a.7.7,0,0,0,.71-.7.71.71,0,0,0-.71-.71H25.83a.71.71,0,0,0-.71.71A.7.7,0,0,0,25.83,26.11Z"/>
    <path class="cls-4" d="M25.83,29.79H36.07a.71.71,0,0,0,.71-.71.7.7,0,0,0-.71-.7H25.83a.7.7,0,0,0-.71.7A.71.71,0,0,0,25.83,29.79Z"/>
    <path class="cls-4" d="M25.83,33.47H36.07a.71.71,0,0,0,0-1.42H25.83a.71.71,0,0,0,0,1.42Z"/>
    <path class="cls-4" d="M25.83,37.14H31a.7.7,0,0,0,.7-.7.71.71,0,0,0-.7-.71H25.83a.71.71,0,0,0-.71.71A.7.7,0,0,0,25.83,37.14Z"/>
  </g>
</svg>
